packages/bezier-icons/icons/car.svg

<svg width="24" height="24" viewBox="0 0 24 24" fill="none" xmlns="http://www.w3.org/2000/svg">
<path d="M5 13.5C5 12.6716 5.67157 12 6.5 12C7.32843 12 8 12.6716 8 13.5C8 14.3284 7.32843 15 6.5 15C5.67157 15 5 14.3284 5 13.5Z" fill="#313234"/>
<path d="M17.5 12C16.6716 12 16 12.6716 16 13.5C16 14.3284 16.6716 15 17.5 15C18.3284 15 19 14.3284 19 13.5C19 12.6716 18.3284 12 17.5 12Z" fill="#313234"/>
<path fill-rule="evenodd" clip-rule="evenodd" d="M14.9623 3C17.2023 3 19.169 4.48987 19.7755 6.64627L20.7439 10.0895C21.5173 10.8189 22 11.8531 22 13V17C22 17.5523 21.5523 18 21 18V20C21 20.5523 20.5523 21 20 21H18C17.4477 21 17 20.5523 17 20V18H7V20C7 20.5523 6.55228 21 6 21H4C3.44772 21 3 20.5523 3 20V18C2.44772 18 2 17.5523 2 17V13C2 11.8531 2.48272 10.8189 3.25608 10.0895L4.22449 6.64627C4.83097 4.48987 6.79768 3 9.03774 3H14.9623ZM18.36 9L17.8502 7.18776C17.5029 5.95273 16.4119 5.08209 15.1445 5.00549L14.9623 5H9.03774C7.7548 5 6.62129 5.8145 6.20441 7.01386L6.14979 7.18776L5.639 9H18.36ZM6 11C4.94564 11 4.08183 11.8159 4.00549 12.8507L4 13V16H20V13C20 11.9456 19.1841 11.0818 18.1493 11.0055L18 11H6Z" fill="#313234"/>
</svg>

<svg xmlns="http://www.w3.org/2000/svg" width="24" height="24" fill="none" viewBox="0 0 24 24"><path fill="#313234" d="M5 13.5a1.5 1.5 0 1 1 3 0 1.5 1.5 0 0 1-3 0M17.5 12a1.5 1.5 0 1 0 0 3 1.5 1.5 0 0 0 0-3"/><path fill="#313234" fill-rule="evenodd" d="M14.962 3a5 5 0 0 1 4.814 3.646l.968 3.443A4 4 0 0 1 22 13v4a1 1 0 0 1-1 1v2a1 1 0 0 1-1 1h-2a1 1 0 0 1-1-1v-2H7v2a1 1 0 0 1-1 1H4a1 1 0 0 1-1-1v-2a1 1 0 0 1-1-1v-4c0-1.147.483-2.181 1.256-2.91l.968-3.444A5 5 0 0 1 9.038 3zm3.398 6-.51-1.812a3 3 0 0 0-2.706-2.183L14.963 5H9.038a3 3 0 0 0-2.834 2.014l-.054.174L5.639 9zM6 11a2 2 0 0 0-1.995 1.85L4 13v3h16v-3a2 2 0 0 0-1.85-1.995L18 11z" clip-rule="evenodd"/></svg>
